X:04
T:Donnybrook Fair  (jig)  Allan's  #04
C:Trad/Anon
B:Allan's Irish Fiddler (pub. Mozart Allen,  Glascow) date unknown
Z:FROM ALLAN'S TO NOTEWORTHY, FROM NOTEWORTHY TO ABC, MIDI AND .TXT BY VINCE
BRENNAN Dec. 2002 (HTTP://WWW.SOSYOURMOM.COM)
I:abc2nwc
M:6/8
L:1/8
K:G
D|G2G AGA|Bee dBA|BAB GAB|AGEE2D|
GFG AGA|Bee dBA|BAB GAB|AGF G2:|
|:f|gfe fed|ege dBA|Bee dBA|Beee2e|
[1gfe fed|(e/2f/2g)e dBA|BAB GAB|AGF G2:|
[2gfg aga|bge dBA|BAB GAB|AGF G2|]
